float add(float first, float second) {
  return first + second;
}

float subtract(float first, float second) {
  return first - second;
}

float multiply(float first, float second) {
  return first * second;
}

float divide(float first, float second) {
  return first / second;
}

shader functions(float a = 0, float b = 0, output float c = 0) {
  c = add(subtract(a, a), b);
}